packages/kaspersky-hexa-ui-icons/src/iconsSVGs/28x20/FlagHk.svg

<svg width="28" height="20" viewBox="0 0 28 20" fill="none" xmlns="http://www.w3.org/2000/svg">
<g clip-path="url(#clip0_5138_1006)">
<rect width="28" height="20" rx="2" fill="white"/>
<mask id="mask0_5138_1006" style="mask-type:luminance" maskUnits="userSpaceOnUse" x="0" y="0" width="28" height="20">
<rect width="28" height="20" rx="2" fill="white"/>
</mask>
<g mask="url(#mask0_5138_1006)">
<path fill-rule="evenodd" clip-rule="evenodd" d="M0 20H28V0H0V20Z" fill="#F0371D"/>
<path fill-rule="evenodd" clip-rule="evenodd" d="M14.586 4.13548C15.2864 4.36303 15.4852 5.68297 15.0301 7.08365C14.575 8.48433 13.6383 9.43533 12.938 9.20778C12.2376 8.98022 12.0388 7.66028 12.4939 6.2596C12.949 4.85893 13.8857 3.90792 14.586 4.13548ZM8.3622 7.80582C8.79503 7.21007 10.1118 7.42889 11.3033 8.29455C12.4948 9.16022 13.1098 10.3449 12.677 10.9407C12.2441 11.5364 10.9274 11.3176 9.73586 10.4519C8.54438 9.58627 7.92936 8.40156 8.3622 7.80582ZM17.3333 10.2538C18.8061 10.2538 20 9.65688 20 8.9205C20 8.18412 18.8061 7.58717 17.3333 7.58717C15.8606 7.58717 14.6667 8.18412 14.6667 8.9205C14.6667 9.65688 15.8606 10.2538 17.3333 10.2538ZM17.6667 9.33333C17.8508 9.33333 18 9.18409 18 9C18 8.8159 17.8508 8.66666 17.6667 8.66666C17.4826 8.66666 17.3333 8.8159 17.3333 9C17.3333 9.18409 17.4826 9.33333 17.6667 9.33333ZM17.1222 15.5482C16.4219 15.7757 15.4852 14.8247 15.0301 13.424C14.575 12.0233 14.7738 10.7034 15.4741 10.4759C16.1744 10.2483 17.1111 11.1993 17.5662 12.6C18.0213 14.0007 17.8225 15.3206 17.1222 15.5482ZM16.0085 13.4566C16.0654 13.6317 16.2535 13.7275 16.4286 13.6706C16.6036 13.6137 16.6995 13.4257 16.6426 13.2506C16.5857 13.0755 16.3976 12.9797 16.2225 13.0366C16.0475 13.0935 15.9516 13.2815 16.0085 13.4566ZM9.92963 14.8592C9.49679 14.2635 10.1118 13.0788 11.3033 12.2131C12.4948 11.3475 13.8115 11.1286 14.2444 11.7244C14.6772 12.3201 14.0622 13.5048 12.8707 14.3705C11.6792 15.2362 10.3625 15.455 9.92963 14.8592ZM11.5747 13.1538C11.4257 13.262 11.3927 13.4704 11.5009 13.6194C11.6091 13.7683 11.8176 13.8013 11.9665 13.6931C12.1155 13.5849 12.1485 13.3764 12.0403 13.2275C11.9321 13.0786 11.7236 13.0455 11.5747 13.1538ZM10.4926 8.84333C10.3436 8.73512 10.1352 8.76814 10.027 8.91708C9.91875 9.06601 9.95176 9.27447 10.1007 9.38268C10.2496 9.49088 10.4581 9.45787 10.5663 9.30893C10.6745 9.16 10.6415 8.95154 10.4926 8.84333ZM14.2576 6.48218C14.3145 6.30709 14.2187 6.11904 14.0436 6.06215C13.8685 6.00527 13.6805 6.10108 13.6236 6.27617C13.5667 6.45125 13.6625 6.6393 13.8376 6.69619C14.0127 6.75308 14.2007 6.65726 14.2576 6.48218Z" fill="white"/>
</g>
</g>
<defs>
<clipPath id="clip0_5138_1006">
<rect width="28" height="20" fill="white"/>
</clipPath>
</defs>
</svg>

<svg xmlns="http://www.w3.org/2000/svg" width="28" height="20" fill="none" viewBox="0 0 28 20"><g clip-path="url(#a)"><rect width="28" height="20" fill="#fff" rx="2"/><mask id="b" width="28" height="20" x="0" y="0" maskUnits="userSpaceOnUse" style="mask-type:luminance"><rect width="28" height="20" fill="#fff" rx="2"/></mask><g fill-rule="evenodd" clip-rule="evenodd" mask="url(#b)"><path fill="#f0371d" d="M0 20h28V0H0z"/><path fill="#fff" d="M14.586 4.1355c.7004.2275.8992 1.5475.4441 2.9481s-1.3918 2.3517-2.0921 2.1242c-.7004-.2276-.8992-1.5475-.4441-2.9482s1.3918-2.3517 2.0921-2.1241M8.3622 7.8058c.4328-.5957 1.7496-.377 2.9411.4887s1.8065 2.0504 1.3737 2.6462c-.4329.5957-1.7496.3769-2.9411-.4888s-1.8065-2.0503-1.3737-2.646m8.9711 2.448c1.4728 0 2.6667-.597 2.6667-1.3333 0-.7364-1.1939-1.3333-2.6667-1.3333-1.4727 0-2.6666.597-2.6666 1.3333 0 .7364 1.1939 1.3333 2.6666 1.3333m.3334-.9205a.3333.3333 0 1 0 0-.6666.3333.3333 0 0 0 0 .6666m-.5445 6.2149c-.7003.2275-1.637-.7235-2.0921-2.1242s-.2563-2.7206.444-2.9481 1.637.7234 2.0921 2.1241.2563 2.7206-.444 2.9482m-1.1137-2.0916a.3334.3334 0 1 0 .6341-.2061.3334.3334 0 0 0-.6341.2061m-6.0789 1.4026c-.4328-.5957.1822-1.7804 1.3737-2.6461 1.1915-.8656 2.5082-1.0845 2.9411-.4887.4328.5957-.1822 1.7804-1.3737 2.6461s-2.5082 1.0845-2.941.4887m1.6451-1.7054a.3333.3333 0 1 0 .3918.5393.3333.3333 0 1 0-.3918-.5393m-1.0821-4.3105a.3333.3333 0 1 0-.3919.5393.3333.3333 0 0 0 .3919-.5393m3.765-2.3611a.3333.3333 0 1 0-.634-.206.3333.3333 0 0 0 .634.206"/></g></g><defs><clipPath id="a"><path fill="#fff" d="M0 0h28v20H0z"/></clipPath></defs></svg>
